icon-themes/HighContrast-SVG/scalable/actions/go-top.svg

<?xml version="1.0" encoding="UTF-8" standalone="no"?>
<!-- Generator: Adobe Illustrator 9.0, SVG Export Plug-In  -->
<svg
   xmlns:dc="http://purl.org/dc/elements/1.1/"
   xmlns:cc="http://creativecommons.org/ns#"
   xmlns:rdf="http://www.w3.org/1999/02/22-rdf-syntax-ns#"
   xmlns:svg="http://www.w3.org/2000/svg"
   xmlns="http://www.w3.org/2000/svg"
   xmlns:sodipodi="http://sodipodi.sourceforge.net/DTD/sodipodi-0.dtd"
   xmlns:inkscape="http://www.inkscape.org/namespaces/inkscape"
   width="48pt"
   height="48pt"
   viewBox="0 0 48 48"
   xml:space="preserve"
   id="svg2"
   sodipodi:version="0.32"
   inkscape:version="0.46"
   sodipodi:docname="go-top.svg"
   inkscape:output_extension="org.inkscape.output.svg.inkscape"><metadata
   id="metadata21"><rdf:RDF><cc:Work
       rdf:about=""><dc:format>image/svg+xml</dc:format><dc:type
         rdf:resource="http://purl.org/dc/dcmitype/StillImage" /></cc:Work></rdf:RDF></metadata><defs
   id="defs19" /><sodipodi:namedview
   inkscape:window-height="480"
   inkscape:window-width="640"
   inkscape:pageshadow="2"
   inkscape:pageopacity="0.0"
   guidetolerance="10.0"
   gridtolerance="10.0"
   objecttolerance="10.0"
   borderopacity="1.0"
   bordercolor="#666666"
   pagecolor="#ffffff"
   id="base" />
	<g
   id="Layer_x0020_3"
   style="fill-rule:nonzero;clip-rule:nonzero;fill:#FFFFFF;stroke:#FFFFFF;stroke-width:7.5901;stroke-linejoin:round;stroke-miterlimit:4;">
		<g
   id="g5">
			<path
   d="M41.1,28c0.3,0,0.3-0.3,0.2-0.5L24.4,10.8c-0.5-0.5-0.7-0.4-1,0L6.7,27.5c-0.1,0.1-0.1,0.4,0.1,0.4h10v13.6c0,0.3,0.2,0.5,0.4,0.5l13.3,0c0.3,0,0.5-0.2,0.5-0.5V27.9L41.1,28z"
   id="path7" />
			<path
   d="M41.2,10.1c0,0.2-0.1,0.3-0.3,0.3H7.1c-0.2,0-0.3-0.1-0.3-0.3V6.4c0-0.2,0.1-0.3,0.3-0.3h33.7c0.2,0,0.3,0.1,0.3,0.3v3.8z"
   id="path9" />
			<path
   style="fill:#000000;stroke:none;"
   d="M41.1,28c0.3,0,0.3-0.3,0.2-0.5L24.4,10.8c-0.5-0.5-0.7-0.4-1,0L6.7,27.5c-0.1,0.1-0.1,0.4,0.1,0.4h10v13.6c0,0.3,0.2,0.5,0.4,0.5l13.3,0c0.3,0,0.5-0.2,0.5-0.5V27.9L41.1,28z"
   id="path11" />
			<path
   style="fill:#000000;stroke:none;"
   d="M41.2,10.1c0,0.2-0.1,0.3-0.3,0.3H7.1c-0.2,0-0.3-0.1-0.3-0.3V6.4c0-0.2,0.1-0.3,0.3-0.3h33.7c0.2,0,0.3,0.1,0.3,0.3v3.8z"
   id="path13" />
		</g>
	</g>
	<g
   id="crop_x0020_marks"
   style="fill-rule:nonzero;clip-rule:nonzero;stroke:#000000;stroke-miterlimit:4;">
		<path
   style="fill:none;stroke:none;"
   d="M48,48H0V0h48v48z"
   id="path16" />
	</g>
</svg>

<?xml version="1.0" encoding="UTF-8" standalone="no"?>
<!-- Generator: Adobe Illustrator 9.0, SVG Export Plug-In  -->
<svg
   xmlns:dc="http://purl.org/dc/elements/1.1/"
   xmlns:cc="http://creativecommons.org/ns#"
   xmlns:rdf="http://www.w3.org/1999/02/22-rdf-syntax-ns#"
   xmlns:svg="http://www.w3.org/2000/svg"
   xmlns="http://www.w3.org/2000/svg"
   xmlns:sodipodi="http://sodipodi.sourceforge.net/DTD/sodipodi-0.dtd"
   xmlns:inkscape="http://www.inkscape.org/namespaces/inkscape"
   width="48"
   height="48"
   viewBox="0 0 48 48"
   xml:space="preserve"
   id="svg2"
   sodipodi:version="0.32"
   inkscape:version="0.46"
   sodipodi:docname="go-top.svg"
   inkscape:output_extension="org.inkscape.output.svg.inkscape"
   version="1.0"><metadata
   id="metadata21"><rdf:RDF><cc:Work
       rdf:about=""><dc:format>image/svg+xml</dc:format><dc:type
         rdf:resource="http://purl.org/dc/dcmitype/StillImage" /></cc:Work></rdf:RDF></metadata><defs
   id="defs19" /><sodipodi:namedview
   inkscape:window-height="682"
   inkscape:window-width="641"
   inkscape:pageshadow="2"
   inkscape:pageopacity="0.0"
   guidetolerance="10.0"
   gridtolerance="10.0"
   objecttolerance="10.0"
   borderopacity="1.0"
   bordercolor="#666666"
   pagecolor="#ffffff"
   id="base"
   showgrid="true"
   inkscape:object-paths="true"
   inkscape:object-nodes="true"
   inkscape:zoom="8.2333333"
   inkscape:cx="30"
   inkscape:cy="30"
   inkscape:window-x="0"
   inkscape:window-y="25"
   inkscape:current-layer="svg2"><inkscape:grid
     type="xygrid"
     id="grid2387"
     visible="true"
     enabled="true" /></sodipodi:namedview>
	<g
   id="Layer_x0020_3"
   style="fill:#ffffff;fill-rule:nonzero;stroke:#ffffff;stroke-width:7.59009981;stroke-linejoin:round;stroke-miterlimit:4">
		<g
   id="g5">
			<path
   d="M 41.1,28 C 41.4,28 41.4,27.7 41.3,27.5 L 24.4,10.8 C 23.9,10.3 23.7,10.4 23.4,10.8 L 6.7,27.5 C 6.6,27.6 6.6,27.9 6.8,27.9 L 16.8,27.9 L 16.8,41.5 C 16.8,41.8 17,42 17.2,42 L 30.5,42 C 30.8,42 31,41.8 31,41.5 L 31,27.9 L 41.1,28 z"
   id="path7" />
			<path
   d="M 41.2,10.1 C 41.2,10.3 41.1,10.4 40.9,10.4 L 7.1,10.4 C 6.9,10.4 6.8,10.3 6.8,10.1 L 6.8,6.4 C 6.8,6.2 6.9,6.1 7.1,6.1 L 40.8,6.1 C 41,6.1 41.1,6.2 41.1,6.4 L 41.1,10.2 L 41.2,10.1 z"
   id="path9" />
			<path
   style="fill:#000000;stroke:none"
   d="M 41.1,28 C 41.4,28 41.4,27.7 41.3,27.5 L 24.4,10.8 C 23.9,10.3 23.7,10.4 23.4,10.8 L 6.7,27.5 C 6.6,27.6 6.6,27.9 6.8,27.9 L 16.8,27.9 L 16.8,41.5 C 16.8,41.8 17,42 17.2,42 L 30.5,42 C 30.8,42 31,41.8 31,41.5 L 31,27.9 L 41.1,28 z"
   id="path11" />
			<path
   style="fill:#000000;stroke:none"
   d="M 41.2,10.1 C 41.2,10.3 41.1,10.4 40.9,10.4 L 7.1,10.4 C 6.9,10.4 6.8,10.3 6.8,10.1 L 6.8,6.4 C 6.8,6.2 6.9,6.1 7.1,6.1 L 40.8,6.1 C 41,6.1 41.1,6.2 41.1,6.4 L 41.1,10.2 L 41.2,10.1 z"
   id="path13" />
		</g>
	</g>
	<g
   id="crop_x0020_marks"
   style="fill-rule:nonzero;stroke:#000000;stroke-miterlimit:4">
		<path
   style="fill:none;stroke:none"
   d="M 48,48 L 0,48 L 0,0 L 48,0 L 48,48 z"
   id="path16" />
	</g>
</svg>
